X: 13680
T: Foot Of The Glen, The
R: reel
M: 4/4
K: Dmajor
D2ED FA~A2|{B/}d2 ed ((3Bcd) Ad|~B2BA FAdB|AFDF EGFE|
D2ED FA~A2|{B/}d2 ed ((3Bcd) Ad|~B2BA FAdB|AFDF ~E2D2:|
defa {b/}afdf|afdf eB~B2|defa {b/}afdf|abaf ~e2d2|
dfea {b/}afbf|afdf eB~B2|BcBA FAdB|AFDF ~E2D2:|

